X: 1
T: LITTLE BROWN JUG - JIG
C: Jas.Hand
B: Ryan's Mammoth Collection of Fiddle Tunes
R: jig
M: 6/8
L: 1/8
Z: Contributed 20021212150840 by John Chambers jmchambers:rcn.com
K: D
(ud/e/) \
| kf3 d2B | AdB A>FD | (FB)B Bcd | {d}cBc {c}BAF \
| kf3 (d2B) | AdB {c}BAF | FBB Bcd | {d}cBc B2 :|
|: uA \
| f>ed f>ed | cAB =c2d | =cAB cAG | FDF Ade \
| f>ed f>ed | cAB =c2d | =cAG FGA | (FD)D D2 :|
